resources/dark/email.svg

<svg fill="none" height="16" viewBox="0 0 16 16" width="16" xmlns="http://www.w3.org/2000/svg" xmlns:xlink="http://www.w3.org/1999/xlink"><linearGradient id="a" gradientUnits="userSpaceOnUse" x1="8" x2="8" y1="4" y2="13"><stop offset="0" stop-color="#4285f7"/><stop offset="1" stop-color="#b75ef7"/></linearGradient><path d="m13.7727 6.97188c.0914-.07266.2273-.00469.2273.11015v4.79297c0 .6211-.5039 1.125-1.125 1.125h-9.75c-.62109 0-1.125-.5039-1.125-1.125v-4.79062c0-.11719.13359-.18282.22734-.11016.525.40781 1.2211.92578 3.61172 2.6625.49453.36094 1.32891 1.12028 2.16094 1.11558.83672.0071 1.6875-.76871 2.1633-1.11558 2.3906-1.73672 3.0844-2.25703 3.6094-2.66484zm-5.7727 3.02812c.54375.0094 1.32656-.68437 1.72031-.97031 3.11019-2.25703 3.34689-2.45391 4.06409-3.01641.1359-.10547.2156-.26953.2156-.44297v-.44531c0-.62109-.5039-1.125-1.125-1.125h-9.75c-.62109 0-1.125.50391-1.125 1.125v.44531c0 .17344.07969.33516.21563.44297.71718.56016.9539.75938 4.06406 3.01641.39375.28594 1.17656.97971 1.72031.97031z" fill="url(#a)"/></svg>

<svg width="16" height="16" viewBox="0 0 16 16" fill="none" xmlns="http://www.w3.org/2000/svg">
<path d="M13.7727 6.97188C13.8641 6.89922 14 6.96719 14 7.08203V11.875C14 12.4961 13.4961 13 12.875 13H3.125C2.50391 13 2 12.4961 2 11.875V7.08438C2 6.96719 2.13359 6.90156 2.22734 6.97422C2.75234 7.38203 3.44844 7.9 5.83906 9.63672C6.33359 9.99766 7.16797 10.757 8 10.7523C8.83672 10.7594 9.6875 9.98359 10.1633 9.63672C12.5539 7.9 13.2477 7.37969 13.7727 6.97188ZM8 10C8.54375 10.0094 9.32656 9.31563 9.72031 9.02969C12.8305 6.77266 13.0672 6.57578 13.7844 6.01328C13.9203 5.90781 14 5.74375 14 5.57031V5.125C14 4.50391 13.4961 4 12.875 4H3.125C2.50391 4 2 4.50391 2 5.125V5.57031C2 5.74375 2.07969 5.90547 2.21563 6.01328C2.93281 6.57344 3.16953 6.77266 6.27969 9.02969C6.67344 9.31563 7.45625 10.0094 8 10Z" fill="url(#paint0_linear)"/>
<defs>
<linearGradient id="paint0_linear" x1="8" y1="4" x2="8" y2="13" gradientUnits="userSpaceOnUse">
<stop stop-color="#4285F7"/>
<stop offset="1" stop-color="#B75EF7"/>
</linearGradient>
</defs>
</svg>
